src/assets/icons/letters,simple,serif-y.svg

<svg width="48" height="48" viewBox="0 0 48 48" fill="none" xmlns="http://www.w3.org/2000/svg">
<rect opacity="0.2" x="5" y="5" width="38" height="38" rx="4" fill="black"/>
<path d="M15.6335 16.68C15.3335 16.16 15.0535 15.73 14.7935 15.39C14.5535 15.05 14.3035 14.79 14.0435 14.61C13.7835 14.41 13.5035 14.28 13.2035 14.22C12.9035 14.14 12.5635 14.1 12.1835 14.1V12.9H22.2635V14.1C21.4235 14.1 20.8335 14.18 20.4935 14.34C20.1535 14.5 19.9835 14.74 19.9835 15.06C19.9835 15.26 20.0435 15.5 20.1635 15.78C20.2835 16.06 20.4735 16.44 20.7335 16.92L25.0235 25.11H25.1435L28.9235 18.81C29.5835 17.69 30.0435 16.86 30.3035 16.32C30.5635 15.76 30.6935 15.32 30.6935 15C30.6935 14.66 30.5335 14.43 30.2135 14.31C29.9135 14.17 29.3435 14.1 28.5035 14.1V12.9H36.0335V14.1C35.5935 14.1 35.1935 14.17 34.8335 14.31C34.4735 14.45 34.0935 14.73 33.6935 15.15C33.3135 15.55 32.8735 16.12 32.3735 16.86C31.8935 17.58 31.3135 18.53 30.6335 19.71L26.2535 27.21V30.27C26.2535 31.27 26.2935 32.07 26.3735 32.67C26.4735 33.27 26.6335 33.73 26.8535 34.05C27.0935 34.35 27.4135 34.55 27.8135 34.65C28.2135 34.75 28.7335 34.8 29.3735 34.8V36H18.6935V34.8C19.3135 34.8 19.8235 34.75 20.2235 34.65C20.6435 34.55 20.9735 34.35 21.2135 34.05C21.4535 33.75 21.6135 33.32 21.6935 32.76C21.7935 32.18 21.8435 31.42 21.8435 30.48V27.72L15.6335 16.68Z" fill="black"/>
</svg>

<svg xmlns="http://www.w3.org/2000/svg" width="48" height="48" fill="none" viewBox="0 0 48 48">
  <rect width="38" height="38" x="5" y="5" fill="#000" opacity=".2" rx="4"/>
  <path fill="#000" d="M15.633 16.68c-.3-.52-.58-.95-.84-1.29-.24-.34-.49-.6-.75-.78-.26-.2-.54-.33-.84-.39-.3-.08-.64-.12-1.02-.12v-1.2h10.08v1.2c-.84 0-1.43.08-1.77.24-.34.16-.51.4-.51.72 0 .2.06.44.18.72.12.28.31.66.57 1.14l4.29 8.19h.12l3.78-6.3c.66-1.12 1.12-1.95 1.38-2.49.26-.56.39-1 .39-1.32 0-.34-.16-.57-.48-.69-.3-.14-.87-.21-1.71-.21v-1.2h7.53v1.2c-.44 0-.84.07-1.2.21-.36.14-.74.42-1.14.84-.38.4-.82.97-1.32 1.71-.48.72-1.06 1.67-1.74 2.85l-4.38 7.5v3.06c0 1 .04 1.8.12 2.4.1.6.26 1.06.48 1.38.24.3.56.5.96.6.4.1.92.15 1.56.15V36h-10.68v-1.2c.62 0 1.13-.05 1.53-.15.42-.1.75-.3.99-.6s.4-.73.48-1.29c.1-.58.15-1.34.15-2.28v-2.76l-6.21-11.04z"/>
</svg>
